X:1
T:A Sailor Courted
M:3/4
L:1/8
K:Eb
 G,| EE C2 B,B,| EEG-A BB| cB F2 F E/2F/2| GE B,3 B,| EE C2 B,B,| EE E2 GB|\
 cB G2 FF| E/2 E3/2 E2 z E| GBd c2 B| ecB G2 c| BGF F2E/2-F/2| GE B,2 B,3/2- D/2|\
 EEC B,2 B,| EE E2G/2-B/2 c| BG F3 G/2F/2| EE E3||

